public/images/projects/tone-and-sculpt/Evolve-You-Logo-White.svg

<svg fill="none" height="44" viewBox="0 0 208 44" width="208" xmlns="http://www.w3.org/2000/svg" xmlns:xlink="http://www.w3.org/1999/xlink"><clipPath id="a"><path d="m0 0h208v44h-208z"/></clipPath><g clip-path="url(#a)"><path clip-rule="evenodd" d="m103.632 34.9754c-.257.6287-.62 1.1732-1.089 1.6335-.47.4605-1.028.8146-1.674 1.0623-.646.2483-1.3324.3719-2.0583.3719h-3.7006c-.7262 0-1.4078-.1236-2.0452-.3719-.6375-.2477-1.1911-.6018-1.66-1.0623-.4694-.4603-.8367-1.0048-1.1023-1.6335-.2657-.6283-.3985-1.3235-.3985-2.085 0-.7612.1328-1.4563.3985-2.085.2656-.6284.6329-1.1728 1.1023-1.6335.4689-.4603 1.0225-.8142 1.66-1.0624.6374-.2477 1.319-.3719 2.0452-.3719h3.7006c.7259 0 1.4123.1242 2.0583.3719.646.2482 1.204.6021 1.674 1.0624.469.4607.832 1.0051 1.089 1.6335.256.6287.385 1.3238.385 2.085 0 .7615-.129 1.4567-.385 2.085zm2.868-9.0837c-.965-.894-2.098-1.5892-3.4-2.0851-1.301-.4955-2.722-.7437-4.2626-.7437h-3.7539c-1.5405 0-2.9615.2482-4.263.7437-1.3014.4959-2.4348 1.1911-3.3997 2.0851-.9654.8943-1.7132 1.939-2.2445 3.134-.5311 1.1953-.7968 2.4835-.7968 3.8647 0 1.3811.2657 2.6693.7968 3.8646.5313 1.1952 1.2791 2.2401 2.2445 3.1341.9649.8942 2.0983 1.5894 3.3997 2.085 1.3015.4955 2.7225.7437 4.263.7437h3.7539c1.5406 0 2.9616-.2482 4.2626-.7437 1.302-.4956 2.435-1.1908 3.4-2.085.965-.894 1.713-1.9389 2.244-3.1341.532-1.1953.797-2.4835.797-3.8646 0-1.3812-.265-2.6694-.797-3.8647-.531-1.195-1.279-2.2397-2.244-3.134zm28.824-2.4834h-3.991c-.379 0-.687.3075-.687.6869v9.6982c0 1.0625-.159 1.8992-.478 2.51-.319.6109-.735 1.045-1.248 1.3015-.514.2568-1.072.3852-1.674.3852h-6.675c-.62 0-1.182-.1284-1.687-.3852-.505-.2565-.912-.6906-1.222-1.3015-.31-.6108-.465-1.4475-.465-2.51v-9.6982c0-.3794-.307-.6869-.686-.6869h-4.098c-.379 0-.687.3075-.687.6869v9.6716c0 2.0718.372 3.7629 1.116 5.0732.743 1.3106 1.775 2.2754 3.094 2.8951 1.319.62 2.864.9296 4.635.9296h6.675c1.735 0 3.263-.3096 4.582-.9296 1.319-.6197 2.346-1.5845 3.081-2.8951.735-1.3103 1.102-3.0014 1.102-5.0732v-9.6716c0-.3794-.307-.6869-.687-.6869zm49.006-21.78062h-5.111c-.245 0-.471.13018-.594.34165l-8.053 13.85287c-.082.141-.233.2279-.396.2279h-1.023c-.163 0-.313-.0864-.395-.2268l-8.106-13.85559c-.123-.21059-.349-.34003-.593-.34003h-5.38c-.357 0-.577.39005-.392.69533l10.87 17.93799c.125.2055.347.331.588.331h7.469c.24 0 .462-.125.587-.3298l10.92-17.93845c.186-.30515-.034-.69607-.391-.69607zm-26.403 14.47552h-13.225c-.253 0-.458-.205-.458-.4579v-13.33073c0-.37937-.307-.68689-.687-.68689h-4.124c-.379 0-.687.30752-.687.68689v17.59043c0 .3795.308.687.687.687h18.494c.379 0 .687-.3075.687-.687v-3.1148c0-.3794-.308-.687-.687-.687zm-27.192-2.9084c-.257.6287-.62 1.1732-1.089 1.6335-.47.4606-1.028.8146-1.674 1.0624-.646.2482-1.332.3718-2.058.3718h-4.09c-.727 0-1.408-.1236-2.046-.3718-.637-.2478-1.191-.6018-1.66-1.0624-.469-.4603-.836-1.0048-1.102-1.6335-.265-.6283-.398-1.3235-.398-2.085 0-.7611.133-1.45627.398-2.08496.266-.62831.633-1.17286 1.102-1.63351.469-.46016 1.023-.81421 1.66-1.06241.638-.2477 1.319-.37192 2.046-.37192h4.09c.726 0 1.412.12422 2.058.37192.646.2482 1.204.60225 1.674 1.06241.469.46065.832 1.0052 1.089 1.63351.256.62869.385 1.32386.385 2.08496 0 .7615-.129 1.4567-.385 2.085zm2.868-9.08365c-.965-.89401-2.098-1.58909-3.4-2.08498-1.301-.49553-2.722-.74385-4.263-.74385h-4.143c-1.54 0-2.961.24832-4.263.74385-1.301.49589-2.435 1.19097-3.4 2.08498-.965.89426-1.713 1.93892-2.244 3.13412-.531 1.19519-.797 2.48334-.797 3.86453 0 1.3811.266 2.6694.797 3.8646s1.279 2.2402 2.244 3.1341c.965.8944 2.099 1.5895 3.4 2.085 1.302.4955 2.723.7437 4.263.7437h3.949c1.54 0 3.156-.2482 4.457-.7437 1.302-.4955 2.435-1.1906 3.4-2.085.965-.8939 1.713-1.9389 2.245-3.1341.531-1.1952.796-2.4835.796-3.8646 0-1.38119-.265-2.66934-.796-3.86453-.532-1.1952-1.28-2.23986-2.245-3.13412zm-40.991 16.14985c.1244.2055.3473.331.5875.331h7.4695c.24 0 .462-.125.587-.3298l10.92-17.93845c.186-.30515-.034-.69607-.391-.69607h-5.111c-.245 0-.471.13018-.594.34165l-8.0532 13.85287c-.0819.141-.2327.2279-.3959.2279h-1.0232c-.1626 0-.3131-.0864-.3953-.2268l-8.1057-13.85559c-.1232-.21059-.3489-.34003-.593-.34003h-5.38c-.3568 0-.5766.39005-.3917.69533zm-32.5667.331h19.7243c.3794 0 .6869-.3075.6869-.687v-2.7696c0-.3794-.3075-.687-.6869-.687h-14.4552c-.2529 0-.4579-.205-.4579-.4579v-2.6963c0-.2529.205-.458.4579-.458h13.9771c.3793 0 .687-.3076.687-.6869v-2.76953c0-.37937-.3077-.68689-.687-.68689h-13.9771c-.2529 0-.4579-.20501-.4579-.45805v-2.00569c0-.25291.205-.45792.4579-.45792h14.4552c.3794 0 .6869-.30764.6869-.68701v-2.76964c0-.37937-.3075-.68689-.6869-.68689h-19.7243c-.3793 0-.6869.30752-.6869.68689v17.59043c0 .3795.3076.687.6869.687zm132.0477-14.82078h14.455c.38 0 .687-.30764.687-.68701v-2.76964c0-.37937-.307-.68689-.687-.68689h-19.724c-.379 0-.687.30752-.687.68689v17.59043c0 .3795.308.687.687.687h19.724c.38 0 .687-.3075.687-.687v-2.7696c0-.3794-.307-.687-.687-.687h-14.455c-.253 0-.458-.205-.458-.4579v-2.6963c0-.2529.205-.458.458-.458h13.977c.38 0 .687-.3076.687-.6869v-2.76953c0-.37937-.307-.68689-.687-.68689h-13.977c-.253 0-.458-.20501-.458-.45805v-2.00569c0-.25291.205-.45792.458-.45792zm-106.4368 17.63708h-5.5348c-.1823 0-.3571.0724-.4859.2014l-6.9846 6.9907c-.1791.1791-.4694.179-.6483-.0004l-6.9714-6.9899c-.1289-.1292-.3039-.2018-.4864-.2018h-5.7717c-.4093 0-.6131.4959-.3221.7835l10.8231 10.7014c.1305.1291.2039.3051.2039.4885v6.3038c0 .3794.3076.6871.687.6871h4.0976c.3794 0 .6869-.3077.6869-.6871v-6.2776c0-.1833.0733-.359.2034-.488l10.8257-10.7284c.2906-.288.0867-.7832-.3224-.7832zm-40.9921-19.30638c-5.5151-5.48592-14.4627-5.46606-19.9537.04083-.1687.16492-.4381.16492-.6067 0-5.491-5.50677-14.4388-5.52675-19.95376-.04071-2.66825 2.65423-4.14042945 6.15916-4.14528153 9.86906-.00470353 3.567 1.35430153 7.0161 3.84459153 9.8088.10809.1212.10487.3049-.01005.4198l-3.364443 3.3646c-.274755.2746-.274755.72 0 .9948l2.244943 2.2448c.27464.2747.72003.2747.99478 0l10.35792-10.358c.2747-.2747.2747-.7201 0-.9948l-2.245-2.2448c-.2746-.2748-.72-.2748-.9947 0l-3.31273 3.3127c-.12757.1275-.33556.1159-.45209-.0219-1.60882-1.9049-2.48471-4.1868-2.4816-6.52.00322-2.4839.99576-4.83739 2.79482-6.6269 1.85764-1.84783 4.2915-2.77088 6.725-2.77088 2.4504 0 4.9007.93608 6.7612 2.80638l2.8334 2.774c.3925.3842 1.0202.3842 1.4126 0l2.8119-2.75254.0216-.02146c3.7084-3.72781 9.7582-3.74369 13.4862-.0355 1.799 1.78951 2.7916 4.143 2.7948 6.6269.0035 2.6404-1.1164 5.2164-3.1531 7.2532l-16.3611 16.3628c-.1694.1693-.4439.1693-.6132 0l-3.2294-3.2298c-.1192-.1193-.1192-.3126 0-.432l3.3435-3.3433c.2746-.2747.2746-.7201 0-.9948l-2.245-2.2448c-.2747-.2748-.7201-.2748-.9947 0l-10.3581 10.3579c-.2747.2747-.2747.7201 0 .9949l2.245 2.2448c.2746.2747.7201.2746.9948 0l3.3429-3.343c.1193-.1192.3126-.1192.432 0l6.128 6.1288c.3577.3576.9376.3576 1.2951 0l19.2599-19.262c2.9034-2.9037 4.5001-6.6325 4.495-10.4988-.0049-3.7098-1.477-7.21473-4.1453-9.86908zm-27.4392 23.33358c.2385-.2387.2385-.6254 0-.864l-2.3758-2.3757c-.2386-.2386-.6254-.2386-.864 0l-6.52085 6.521c-.23852.2385-.23852.6253 0 .8639l2.37575 2.3757c.2386.2386.6253.2386.864 0z" fill="#fff" fill-rule="evenodd"/></g></svg>

<svg width="208" height="44" viewBox="0 0 208 44" fill="none" xmlns="http://www.w3.org/2000/svg">
<g clip-path="url(#clip0_123_31)">
<path fill-rule="evenodd" clip-rule="evenodd" d="M103.632 34.9754C103.375 35.6041 103.012 36.1486 102.543 36.6089C102.073 37.0694 101.515 37.4235 100.869 37.6712C100.223 37.9195 99.5366 38.0431 98.8107 38.0431H95.1101C94.3839 38.0431 93.7023 37.9195 93.0649 37.6712C92.4274 37.4235 91.8738 37.0694 91.4049 36.6089C90.9355 36.1486 90.5682 35.6041 90.3026 34.9754C90.0369 34.3471 89.9041 33.6519 89.9041 32.8904C89.9041 32.1292 90.0369 31.4341 90.3026 30.8054C90.5682 30.177 90.9355 29.6326 91.4049 29.1719C91.8738 28.7116 92.4274 28.3577 93.0649 28.1095C93.7023 27.8618 94.3839 27.7376 95.1101 27.7376H98.8107C99.5366 27.7376 100.223 27.8618 100.869 28.1095C101.515 28.3577 102.073 28.7116 102.543 29.1719C103.012 29.6326 103.375 30.177 103.632 30.8054C103.888 31.4341 104.017 32.1292 104.017 32.8904C104.017 33.6519 103.888 34.3471 103.632 34.9754ZM106.5 25.8917C105.535 24.9977 104.402 24.3025 103.1 23.8066C101.799 23.3111 100.378 23.0629 98.8374 23.0629H95.0835C93.543 23.0629 92.122 23.3111 90.8205 23.8066C89.5191 24.3025 88.3857 24.9977 87.4208 25.8917C86.4554 26.786 85.7076 27.8307 85.1763 29.0257C84.6452 30.221 84.3795 31.5092 84.3795 32.8904C84.3795 34.2715 84.6452 35.5597 85.1763 36.755C85.7076 37.9502 86.4554 38.9951 87.4208 39.8891C88.3857 40.7833 89.5191 41.4785 90.8205 41.9741C92.122 42.4696 93.543 42.7178 95.0835 42.7178H98.8374C100.378 42.7178 101.799 42.4696 103.1 41.9741C104.402 41.4785 105.535 40.7833 106.5 39.8891C107.465 38.9951 108.213 37.9502 108.744 36.755C109.276 35.5597 109.541 34.2715 109.541 32.8904C109.541 31.5092 109.276 30.221 108.744 29.0257C108.213 27.8307 107.465 26.786 106.5 25.8917V25.8917ZM135.324 23.4083H131.333C130.954 23.4083 130.646 23.7158 130.646 24.0952V33.7934C130.646 34.8559 130.487 35.6926 130.168 36.3034C129.849 36.9143 129.433 37.3484 128.92 37.6049C128.406 37.8617 127.848 37.9901 127.246 37.9901H120.571C119.951 37.9901 119.389 37.8617 118.884 37.6049C118.379 37.3484 117.972 36.9143 117.662 36.3034C117.352 35.6926 117.197 34.8559 117.197 33.7934V24.0952C117.197 23.7158 116.89 23.4083 116.511 23.4083H112.413C112.034 23.4083 111.726 23.7158 111.726 24.0952V33.7668C111.726 35.8386 112.098 37.5297 112.842 38.84C113.585 40.1506 114.617 41.1154 115.936 41.7351C117.255 42.3551 118.8 42.6647 120.571 42.6647H127.246C128.981 42.6647 130.509 42.3551 131.828 41.7351C133.147 41.1154 134.174 40.1506 134.909 38.84C135.644 37.5297 136.011 35.8386 136.011 33.7668V24.0952C136.011 23.7158 135.704 23.4083 135.324 23.4083V23.4083ZM184.33 1.62768H179.219C178.974 1.62768 178.748 1.75786 178.625 1.96933L170.572 15.8222C170.49 15.9632 170.339 16.0501 170.176 16.0501H169.153C168.99 16.0501 168.84 15.9637 168.758 15.8233L160.652 1.96771C160.529 1.75712 160.303 1.62768 160.059 1.62768H154.679C154.322 1.62768 154.102 2.01773 154.287 2.32301L165.157 20.261C165.282 20.4665 165.504 20.592 165.745 20.592H173.214C173.454 20.592 173.676 20.467 173.801 20.2622L184.721 2.32375C184.907 2.0186 184.687 1.62768 184.33 1.62768V1.62768ZM157.927 16.1032H144.702C144.449 16.1032 144.244 15.8982 144.244 15.6453V2.31457C144.244 1.9352 143.937 1.62768 143.557 1.62768H139.433C139.054 1.62768 138.746 1.9352 138.746 2.31457V19.905C138.746 20.2845 139.054 20.592 139.433 20.592H157.927C158.306 20.592 158.614 20.2845 158.614 19.905V16.7902C158.614 16.4108 158.306 16.1032 157.927 16.1032ZM130.735 13.1948C130.478 13.8235 130.115 14.368 129.646 14.8283C129.176 15.2889 128.618 15.6429 127.972 15.8907C127.326 16.1389 126.64 16.2625 125.914 16.2625H121.824C121.097 16.2625 120.416 16.1389 119.778 15.8907C119.141 15.6429 118.587 15.2889 118.118 14.8283C117.649 14.368 117.282 13.8235 117.016 13.1948C116.751 12.5665 116.618 11.8713 116.618 11.1098C116.618 10.3487 116.751 9.65353 117.016 9.02484C117.282 8.39653 117.649 7.85198 118.118 7.39133C118.587 6.93117 119.141 6.57712 119.778 6.32892C120.416 6.08122 121.097 5.957 121.824 5.957H125.914C126.64 5.957 127.326 6.08122 127.972 6.32892C128.618 6.57712 129.176 6.93117 129.646 7.39133C130.115 7.85198 130.478 8.39653 130.735 9.02484C130.991 9.65353 131.12 10.3487 131.12 11.1098C131.12 11.8713 130.991 12.5665 130.735 13.1948ZM133.603 4.11115C132.638 3.21714 131.505 2.52206 130.203 2.02617C128.902 1.53064 127.481 1.28232 125.94 1.28232H121.797C120.257 1.28232 118.836 1.53064 117.534 2.02617C116.233 2.52206 115.099 3.21714 114.134 4.11115C113.169 5.00541 112.421 6.05007 111.89 7.24527C111.359 8.44046 111.093 9.72861 111.093 11.1098C111.093 12.4909 111.359 13.7792 111.89 14.9744C112.421 16.1696 113.169 17.2146 114.134 18.1085C115.099 19.0029 116.233 19.698 117.534 20.1935C118.836 20.689 120.257 20.9372 121.797 20.9372H125.746C127.286 20.9372 128.902 20.689 130.203 20.1935C131.505 19.698 132.638 19.0029 133.603 18.1085C134.568 17.2146 135.316 16.1696 135.848 14.9744C136.379 13.7792 136.644 12.4909 136.644 11.1098C136.644 9.72861 136.379 8.44046 135.848 7.24527C135.316 6.05007 134.568 5.00541 133.603 4.11115ZM92.612 20.261C92.7364 20.4665 92.9593 20.592 93.1995 20.592H100.669C100.909 20.592 101.131 20.467 101.256 20.2622L112.176 2.32375C112.362 2.0186 112.142 1.62768 111.785 1.62768H106.674C106.429 1.62768 106.203 1.75786 106.08 1.96933L98.0268 15.8222C97.9449 15.9632 97.7941 16.0501 97.6309 16.0501H96.6077C96.4451 16.0501 96.2946 15.9637 96.2124 15.8233L88.1067 1.96771C87.9835 1.75712 87.7578 1.62768 87.5137 1.62768H82.1337C81.7769 1.62768 81.5571 2.01773 81.742 2.32301L92.612 20.261ZM60.0453 20.592H79.7696C80.149 20.592 80.4565 20.2845 80.4565 19.905V17.1354C80.4565 16.756 80.149 16.4484 79.7696 16.4484H65.3144C65.0615 16.4484 64.8565 16.2434 64.8565 15.9905V13.2942C64.8565 13.0413 65.0615 12.8362 65.3144 12.8362H79.2915C79.6708 12.8362 79.9785 12.5286 79.9785 12.1493V9.37977C79.9785 9.0004 79.6708 8.69288 79.2915 8.69288H65.3144C65.0615 8.69288 64.8565 8.48787 64.8565 8.23483V6.22914C64.8565 5.97623 65.0615 5.77122 65.3144 5.77122H79.7696C80.149 5.77122 80.4565 5.46358 80.4565 5.08421V2.31457C80.4565 1.9352 80.149 1.62768 79.7696 1.62768H60.0453C59.666 1.62768 59.3584 1.9352 59.3584 2.31457V19.905C59.3584 20.2845 59.666 20.592 60.0453 20.592V20.592ZM192.093 5.77122H206.548C206.928 5.77122 207.235 5.46358 207.235 5.08421V2.31457C207.235 1.9352 206.928 1.62768 206.548 1.62768H186.824C186.445 1.62768 186.137 1.9352 186.137 2.31457V19.905C186.137 20.2845 186.445 20.592 186.824 20.592H206.548C206.928 20.592 207.235 20.2845 207.235 19.905V17.1354C207.235 16.756 206.928 16.4484 206.548 16.4484H192.093C191.84 16.4484 191.635 16.2434 191.635 15.9905V13.2942C191.635 13.0413 191.84 12.8362 192.093 12.8362H206.07C206.45 12.8362 206.757 12.5286 206.757 12.1493V9.37977C206.757 9.0004 206.45 8.69288 206.07 8.69288H192.093C191.84 8.69288 191.635 8.48787 191.635 8.23483V6.22914C191.635 5.97623 191.84 5.77122 192.093 5.77122V5.77122ZM85.6562 23.4083H80.1214C79.9391 23.4083 79.7643 23.4807 79.6355 23.6097L72.6509 30.6004C72.4718 30.7795 72.1815 30.7794 72.0026 30.6L65.0312 23.6101C64.9023 23.4809 64.7273 23.4083 64.5448 23.4083H58.7731C58.3638 23.4083 58.16 23.9042 58.451 24.1918L69.2741 34.8932C69.4046 35.0223 69.478 35.1983 69.478 35.3817V41.6855C69.478 42.0649 69.7856 42.3726 70.165 42.3726H74.2626C74.642 42.3726 74.9495 42.0649 74.9495 41.6855V35.4079C74.9495 35.2246 75.0228 35.0489 75.1529 34.9199L85.9786 24.1915C86.2692 23.9035 86.0653 23.4083 85.6562 23.4083V23.4083ZM44.6641 4.10192C39.149 -1.384 30.2014 -1.36414 24.7104 4.14275C24.5417 4.30767 24.2723 4.30767 24.1037 4.14275C18.6127 -1.36402 9.6649 -1.384 4.14994 4.10204C1.48169 6.75627 0.00951055 10.2612 0.00465847 13.9711C-4.50605e-05 17.5381 1.35896 20.9872 3.84925 23.7799C3.95734 23.9011 3.95412 24.0848 3.8392 24.1997L0.474757 27.5643C0.200002 27.8389 0.200002 28.2843 0.474757 28.5591L2.7197 30.8039C2.99434 31.0786 3.43973 31.0786 3.71448 30.8039L14.0724 20.4459C14.3471 20.1712 14.3471 19.7258 14.0724 19.4511L11.8274 17.2063C11.5528 16.9315 11.1074 16.9315 10.8327 17.2063L7.51997 20.519C7.3924 20.6465 7.18441 20.6349 7.06788 20.4971C5.45906 18.5922 4.58317 16.3103 4.58628 13.9771C4.5895 11.4932 5.58204 9.13971 7.3811 7.3502C9.23874 5.50237 11.6726 4.57932 14.1061 4.57932C16.5565 4.57932 19.0068 5.5154 20.8673 7.3857L23.7007 10.1597C24.0932 10.5439 24.7209 10.5439 25.1133 10.1597L27.9252 7.40716L27.9468 7.3857C31.6552 3.65789 37.705 3.64201 41.433 7.3502C43.232 9.13971 44.2246 11.4932 44.2278 13.9771C44.2313 16.6175 43.1114 19.1935 41.0747 21.2303L24.7136 37.5931C24.5442 37.7624 24.2697 37.7624 24.1004 37.5931L20.871 34.3633C20.7518 34.244 20.7518 34.0507 20.871 33.9313L24.2145 30.588C24.4891 30.3133 24.4891 29.8679 24.2145 29.5932L21.9695 27.3484C21.6948 27.0736 21.2494 27.0736 20.9748 27.3484L10.6167 37.7063C10.342 37.981 10.342 38.4264 10.6167 38.7012L12.8617 40.946C13.1363 41.2207 13.5818 41.2206 13.8565 40.946L17.1994 37.603C17.3187 37.4838 17.512 37.4838 17.6314 37.603L23.7594 43.7318C24.1171 44.0894 24.697 44.0894 25.0545 43.7318L44.3144 24.4698C47.2178 21.5661 48.8145 17.8373 48.8094 13.971C48.8045 10.2612 47.3324 6.75627 44.6641 4.10192V4.10192ZM17.2249 27.4355C17.4634 27.1968 17.4634 26.8101 17.2249 26.5715L14.8491 24.1958C14.6105 23.9572 14.2237 23.9572 13.9851 24.1958L7.46425 30.7168C7.22573 30.9553 7.22573 31.3421 7.46425 31.5807L9.84 33.9564C10.0786 34.195 10.4653 34.195 10.704 33.9564L17.2249 27.4355Z" fill="white"/>
</g>
<defs>
<clipPath id="clip0_123_31">
<rect width="208" height="44" fill="white"/>
</clipPath>
</defs>
</svg>
